X: 17107
T: Heidi Hendi
R: jig
M: 6/8
K: Eminor
EGB c2 B|B3 ABG|FGA B3|ABG BFB|
EGB c2 B|B3 ABG|FGA BGB|FBG BFB:|
E3 GFE|FGA dB/c/d|BAG FGA|BAG FGF|
E3 GFE|FGA dB/c/d|BAG FGA|BGB FBG:|

